X: 1
T:Miss Fravisers () Reel
M:2/2
L:1/8
S:Armitt MS
K:G major
gGGA GAGA|gGGA A>GE2|gGGA GABG|AA/2A/2 (b/2a/2g) e2g2||defa (b/2a/2g) (a
/2g/2f)|(d/2e/2f) gB A>G E2|dega (b/2a/2g) ab|d/2d/2d b/2a/2g e2g2:||
